seeds/icons/left.svg

<svg id="Layer_1" height="1.5rem" viewBox="0 0 512 512" width="1.5rem" xmlns="http://www.w3.org/2000/svg" data-name="Layer 1"><path d="m277.852 483.763a16 16 0 0 1 -22.573 1.571l-249.779-217.262a16 16 0 0 1 0-24.144l249.779-217.262a16 16 0 1 1 21 24.144l-235.9 205.19 235.9 205.19a16 16 0 0 1 1.573 22.573zm228.648-22.573-235.9-205.19 235.9-205.19a16 16 0 1 0 -21-24.144l-249.779 217.262a16 16 0 0 0 0 24.144l249.779 217.262a16 16 0 1 0 21-24.144z"/></svg>

<svg xmlns="http://www.w3.org/2000/svg" width="1.5rem" height="1.5rem" data-name="Layer 1" viewBox="0 0 512 512"><path d="M277.852 483.763a16 16 0 0 1-22.573 1.571L5.5 268.072a16 16 0 0 1 0-24.144L255.279 26.666a16 16 0 1 1 21 24.144L40.379 256l235.9 205.19a16 16 0 0 1 1.573 22.573M506.5 461.19 270.6 256 506.5 50.81a16 16 0 1 0-21-24.144L235.721 243.928a16 16 0 0 0 0 24.144L485.5 485.334a16 16 0 1 0 21-24.144"/></svg>
